assets/components_previews/data-display/dark/badge.svg

<svg xmlns="http://www.w3.org/2000/svg" width="320" height="232" fill="none" viewBox="0 0 320 232"><g filter="url(#a)"><rect width="62" height="40" x="129" y="96" fill="#5F43D0" rx="12"/><path fill="#16112C" d="m165.248 121-2.184-7.14h2.212l1.064 4.872 1.344-4.872h1.96l1.358 4.872 1.05-4.872h2.156l-2.184 7.14h-2.016l-1.372-4.872-1.372 4.872zm-5.972.14c-2.38 0-3.92-1.512-3.92-3.71 0-2.212 1.554-3.71 3.85-3.71 2.212 0 3.626 1.428 3.626 3.57 0 .308-.028.546-.056.77h-5.292c.14 1.064.742 1.568 1.778 1.568.672 0 1.162-.21 1.414-.714h1.974c-.476 1.386-1.596 2.226-3.374 2.226m-.098-5.908c-.882 0-1.47.476-1.666 1.442h3.192c-.084-.98-.644-1.442-1.526-1.442M145.7 121v-10.08h2.786l3.794 7.546v-7.546h2.1V121h-2.786l-3.794-7.546V121z"/></g><defs><filter id="a" width="102" height="80" x="109" y="88" color-interpolation-filters="sRGB" filterUnits="userSpaceOnUse"><feFlood flood-opacity="0" result="BackgroundImageFix"/><feColorMatrix in="SourceAlpha" result="hardAlpha" values="0 0 0 0 0 0 0 0 0 0 0 0 0 0 0 0 0 0 127 0"/><feOffset dy="12"/><feGaussianBlur stdDeviation="10"/><feComposite in2="hardAlpha" operator="out"/><feColorMatrix values="0 0 0 0 0 0 0 0 0 0 0 0 0 0 0 0 0 0 0.03 0"/><feBlend in2="BackgroundImageFix" result="effect1_dropShadow_10060_19166"/><feColorMatrix in="SourceAlpha" result="hardAlpha" values="0 0 0 0 0 0 0 0 0 0 0 0 0 0 0 0 0 0 127 0"/><feOffset dy="2"/><feGaussianBlur stdDeviation="3"/><feComposite in2="hardAlpha" operator="out"/><feColorMatrix values="0 0 0 0 0 0 0 0 0 0 0 0 0 0 0 0 0 0 0.05 0"/><feBlend in2="effect1_dropShadow_10060_19166" result="effect2_dropShadow_10060_19166"/><feBlend in="SourceGraphic" in2="effect2_dropShadow_10060_19166" result="shape"/></filter></defs></svg>

<svg width="320" height="232" viewBox="0 0 320 232" fill="none" xmlns="http://www.w3.org/2000/svg">
<g filter="url(#filter0_dd_10060_19166)">
<rect x="129" y="96" width="62" height="40" rx="12" fill="#5F43D0"/>
<path d="M165.248 121L163.064 113.86H165.276L166.34 118.732L167.684 113.86H169.644L171.002 118.732L172.052 113.86H174.208L172.024 121H170.008L168.636 116.128L167.264 121H165.248Z" fill="#16112C"/>
<path d="M159.276 121.14C156.896 121.14 155.356 119.628 155.356 117.43C155.356 115.218 156.91 113.72 159.206 113.72C161.418 113.72 162.832 115.148 162.832 117.29C162.832 117.598 162.804 117.836 162.776 118.06H157.484C157.624 119.124 158.226 119.628 159.262 119.628C159.934 119.628 160.424 119.418 160.676 118.914H162.65C162.174 120.3 161.054 121.14 159.276 121.14ZM159.178 115.232C158.296 115.232 157.708 115.708 157.512 116.674H160.704C160.62 115.694 160.06 115.232 159.178 115.232Z" fill="#16112C"/>
<path d="M145.7 121V110.92H148.486L152.28 118.466V110.92H154.38V121H151.594L147.8 113.454V121H145.7Z" fill="#16112C"/>
</g>
<defs>
<filter id="filter0_dd_10060_19166" x="109" y="88" width="102" height="80" filterUnits="userSpaceOnUse" color-interpolation-filters="sRGB">
<feFlood flood-opacity="0" result="BackgroundImageFix"/>
<feColorMatrix in="SourceAlpha" type="matrix" values="0 0 0 0 0 0 0 0 0 0 0 0 0 0 0 0 0 0 127 0" result="hardAlpha"/>
<feOffset dy="12"/>
<feGaussianBlur stdDeviation="10"/>
<feComposite in2="hardAlpha" operator="out"/>
<feColorMatrix type="matrix" values="0 0 0 0 0 0 0 0 0 0 0 0 0 0 0 0 0 0 0.03 0"/>
<feBlend mode="normal" in2="BackgroundImageFix" result="effect1_dropShadow_10060_19166"/>
<feColorMatrix in="SourceAlpha" type="matrix" values="0 0 0 0 0 0 0 0 0 0 0 0 0 0 0 0 0 0 127 0" result="hardAlpha"/>
<feOffset dy="2"/>
<feGaussianBlur stdDeviation="3"/>
<feComposite in2="hardAlpha" operator="out"/>
<feColorMatrix type="matrix" values="0 0 0 0 0 0 0 0 0 0 0 0 0 0 0 0 0 0 0.05 0"/>
<feBlend mode="normal" in2="effect1_dropShadow_10060_19166" result="effect2_dropShadow_10060_19166"/>
<feBlend mode="normal" in="SourceGraphic" in2="effect2_dropShadow_10060_19166" result="shape"/>
</filter>
</defs>
</svg>
